svgs/makemytrip.svg

<svg xmlns="http://www.w3.org/2000/svg" viewBox="0 0 192 192"><path d="M46.081 74.708c.877-3.262 5.446-11.367 9.978-10.565 5.753 1.019-4.134 40.885-4.134 40.885s23.59-41.235 28.374-40.447c4.248.703-12.24 40.231-7.858 41.284 4.382 1.054 23.609-38.211 27.013-36.843 3.143 1.263-8.694 35.317-2.436 36.981 5.06 1.346 25.206-38.108 25.206-38.108s-16.554 34.978-6.652 39.064c13.101 5.405 30.347-36.427 30.347-36.427s-19.272 46.267-21.494 51.782a28.274 28.274 0 0 0-.36 23.496" fill="none" stroke="#000" stroke-width="12" stroke-linecap="round" stroke-linejoin="round"/><path d="M96 16.5a79.529 79.529 0 0 0-56.215 23.285A79.529 79.529 0 0 0 16.5 96a79.529 79.529 0 0 0 23.285 56.215A79.529 79.529 0 0 0 96 175.5a79.529 79.529 0 0 0 56.215-23.285A79.529 79.529 0 0 0 175.5 96a79.529 79.529 0 0 0-23.285-56.215A79.529 79.529 0 0 0 96 16.5Z" fill="none" stroke="#000" stroke-width="12" stroke-linecap="round" stroke-linejoin="round"/></svg>

<svg
    xmlns="http://www.w3.org/2000/svg"
    viewBox="0 0 192 192"
    id="vector">
    <path
        id="path"
        d="M 46.081 74.708 C 46.958 71.446 51.527 63.341 56.059 64.143 C 61.812 65.162 51.925 105.028 51.925 105.028 C 51.925 105.028 75.515 63.793 80.299 64.581 C 84.547 65.284 68.059 104.812 72.441 105.865 C 76.823 106.919 96.05 67.654 99.454 69.022 C 102.597 70.285 90.76 104.339 97.018 106.003 C 102.078 107.349 122.224 67.895 122.224 67.895 C 122.224 67.895 105.67 102.873 115.572 106.959 C 128.673 112.364 145.919 70.532 145.919 70.532 C 145.919 70.532 126.647 116.799 124.425 122.314 C 122.684 125.975 121.75 129.969 121.688 134.023 C 121.626 138.076 122.436 142.097 124.065 145.81"
        fill="none"
        stroke="#000000"
        stroke-width="12"
        stroke-linecap="round"
        stroke-linejoin="round"/>
    <path
        id="path_1"
        d="M 96 16.5 C 74.923 16.5 54.688 24.882 39.785 39.785 C 24.882 54.688 16.5 74.923 16.5 96 C 16.5 117.077 24.882 137.312 39.785 152.215 C 54.688 167.118 74.923 175.5 96 175.5 C 117.077 175.5 137.312 167.118 152.215 152.215 C 167.118 137.312 175.5 117.077 175.5 96 C 175.5 74.923 167.118 54.688 152.215 39.785 C 137.312 24.882 117.077 16.5 96 16.5 Z"
        fill="none"
        stroke="#000000"
        stroke-width="12"
        stroke-linecap="round"
        stroke-linejoin="round"/>
</svg>
